packages/flutter/assets/icons/map.svg

<?xml version="1.0" encoding="UTF-8"?>
<svg width="24px" height="24px" viewBox="0 0 24 24" version="1.1" xmlns="http://www.w3.org/2000/svg" xmlns:xlink="http://www.w3.org/1999/xlink">
    <title>map</title>
    <g id="map" stroke="none" stroke-width="1" fill="none" fill-rule="evenodd">
        <path d="M12,7.5 C10.6192881,7.5 9.5,8.61928813 9.5,10 C9.5,11.3807119 10.6192881,12.5 12,12.5 C13.3807119,12.5 14.5,11.3807119 14.5,10 C14.5,8.61928813 13.3807119,7.5 12,7.5 Z M12,3 C15.8659932,3 19,6.16034294 19,10.0588235 C19,13.9573041 15.0019531,19.0249023 12,22 L11.5587331,21.5541341 C8.64876479,18.5611182 5,13.7671343 5,10.0588235 C5,6.16034294 8.13400675,3 12,3 Z M12,4 C8.68817342,4 6,6.71076311 6,10.0588235 C6,12.8052071 8.45371876,16.8117281 11.8196746,20.3825881 L12,20.572 L12.1838966,20.3800745 C15.4635172,16.9052325 17.859806,13.0398204 17.9940595,10.2978116 L18,10.0588235 C18,6.71076311 15.3118266,4 12,4 Z M12,8.5 C12.8284271,8.5 13.5,9.17157288 13.5,10 C13.5,10.8284271 12.8284271,11.5 12,11.5 C11.1715729,11.5 10.5,10.8284271 10.5,10 C10.5,9.17157288 11.1715729,8.5 12,8.5 Z" id="Oval" fill="#303846"></path>
    </g>
</svg>

<svg xmlns="http://www.w3.org/2000/svg" width="24" height="24" viewBox="0 0 24 24"><path fill-rule="evenodd" d="M12 7.5a2.5 2.5 0 1 0 0 5 2.5 2.5 0 0 0 0-5zM12 3c3.866 0 7 3.16 7 7.059 0 3.898-3.998 8.966-7 11.941l-.441-.446C8.649 18.561 5 13.767 5 10.06 5 6.16 8.134 3 12 3zm0 1c-3.312 0-6 2.71-6 6.059 0 2.746 2.454 6.753 5.82 10.324l.18.189.184-.192c3.28-3.475 5.676-7.34 5.81-10.082l.006-.24C18 6.712 15.312 4 12 4zm0 4.5a1.5 1.5 0 1 1 0 3 1.5 1.5 0 0 1 0-3z"/></svg>
